assets/file-remove-white-100c2f5a.svg

<!DOCTYPE svg PUBLIC "-//W3C//DTD SVG 1.1//EN" "http://www.w3.org/Graphics/SVG/1.1/DTD/svg11.dtd">
<!-- Uploaded to: SVG Repo, www.svgrepo.com, Transformed by: SVG Repo Mixer Tools -->
<svg width="800px" height="800px" viewBox="0 0 24 24" fill="none" xmlns="http://www.w3.org/2000/svg">
<g id="SVGRepo_bgCarrier" stroke-width="0"/>
<g id="SVGRepo_tracerCarrier" stroke-linecap="round" stroke-linejoin="round"/>
<g id="SVGRepo_iconCarrier"> <path d="M13 2.5V5C13 7.35702 13 8.53553 13.7322 9.26777C14.4645 10 15.643 10 18 10H22" stroke="#ffffff" stroke-width="1.5"/> <path d="M6 18L9 15M9 18L6 15" stroke="#ffffff" stroke-width="1.5" stroke-linecap="round"/> <path d="M2.75 10C2.75 9.58579 2.41421 9.25 2 9.25C1.58579 9.25 1.25 9.58579 1.25 10H2.75ZM21.25 14C21.25 14.4142 21.5858 14.75 22 14.75C22.4142 14.75 22.75 14.4142 22.75 14H21.25ZM15.3929 4.05365L14.8912 4.61112L15.3929 4.05365ZM19.3517 7.61654L18.85 8.17402L19.3517 7.61654ZM21.654 10.1541L20.9689 10.4592V10.4592L21.654 10.1541ZM3.17157 20.8284L3.7019 20.2981H3.7019L3.17157 20.8284ZM20.8284 20.8284L20.2981 20.2981L20.2981 20.2981L20.8284 20.8284ZM1.35509 5.92658C1.31455 6.33881 1.61585 6.70585 2.02807 6.7464C2.4403 6.78695 2.80734 6.48564 2.84789 6.07342L1.35509 5.92658ZM22.6449 18.0734C22.6855 17.6612 22.3841 17.2941 21.9719 17.2536C21.5597 17.2131 21.1927 17.5144 21.1521 17.9266L22.6449 18.0734ZM14 21.25H10V22.75H14V21.25ZM2.75 14V10H1.25V14H2.75ZM21.25 13.5629V14H22.75V13.5629H21.25ZM14.8912 4.61112L18.85 8.17402L19.8534 7.05907L15.8947 3.49618L14.8912 4.61112ZM22.75 13.5629C22.75 11.8745 22.7651 10.8055 22.3391 9.84897L20.9689 10.4592C21.2349 11.0565 21.25 11.742 21.25 13.5629H22.75ZM18.85 8.17402C20.2034 9.3921 20.7029 9.86199 20.9689 10.4592L22.3391 9.84897C21.9131 8.89241 21.1084 8.18853 19.8534 7.05907L18.85 8.17402ZM10.0298 2.75C11.6116 2.75 12.2085 2.76158 12.7405 2.96573L13.2779 1.5653C12.4261 1.23842 11.498 1.25 10.0298 1.25V2.75ZM15.8947 3.49618C14.8087 2.51878 14.1297 1.89214 13.2779 1.5653L12.7405 2.96573C13.2727 3.16993 13.7215 3.55836 14.8912 4.61112L15.8947 3.49618ZM10 21.25C8.09318 21.25 6.73851 21.2484 5.71085 21.1102C4.70476 20.975 4.12511 20.7213 3.7019 20.2981L2.64124 21.3588C3.38961 22.1071 4.33855 22.4392 5.51098 22.5969C6.66182 22.7516 8.13558 22.75 10 22.75V21.25ZM1.25 14C1.25 15.8644 1.24841 17.3382 1.40313 18.489C1.56076 19.6614 1.89288 20.6104 2.64124 21.3588L3.7019 20.2981C3.27869 19.8749 3.02502 19.2952 2.88976 18.2892C2.75159 17.2615 2.75 15.9068 2.75 14H1.25ZM14 22.75C15.8644 22.75 17.3382 22.7516 18.489 22.5969C19.6614 22.4392 20.6104 22.1071 21.3588 21.3588L20.2981 20.2981C19.8749 20.7213 19.2952 20.975 18.2892 21.1102C17.2615 21.2484 15.9068 21.25 14 21.25V22.75ZM10.0298 1.25C8.15538 1.25 6.67442 1.24842 5.51887 1.40307C4.34232 1.56054 3.39019 1.8923 2.64124 2.64124L3.7019 3.7019C4.12453 3.27928 4.70596 3.02525 5.71785 2.88982C6.75075 2.75158 8.11311 2.75 10.0298 2.75V1.25ZM2.84789 6.07342C2.96931 4.83905 3.23045 4.17335 3.7019 3.7019L2.64124 2.64124C1.80633 3.47616 1.48944 4.56072 1.35509 5.92658L2.84789 6.07342ZM21.1521 17.9266C21.0307 19.1609 20.7695 19.8266 20.2981 20.2981L21.3588 21.3588C22.1937 20.5238 22.5106 19.4393 22.6449 18.0734L21.1521 17.9266Z" fill="#ffffff"/> </g>
</svg>

<svg xmlns="http://www.w3.org/2000/svg" width="800px" height="800px" fill="none" viewBox="0 0 24 24"><path stroke="#fff" stroke-width="1.5" d="M13 2.5V5c0 2.357 0 3.536.732 4.268S15.643 10 18 10h4"/><path stroke="#fff" stroke-linecap="round" stroke-width="1.5" d="m6 18 3-3m0 3-3-3"/><path fill="#fff" d="M2.75 10a.75.75 0 0 0-1.5 0zm18.5 4a.75.75 0 0 0 1.5 0zm-5.857-9.946-.502.557zm3.959 3.563-.502.557zm2.302 2.537-.685.305zM3.172 20.828l.53-.53zm17.656 0-.53-.53zM1.355 5.927a.75.75 0 0 0 1.493.146zm21.29 12.146a.75.75 0 1 0-1.493-.146zM14 21.25h-4v1.5h4zM2.75 14v-4h-1.5v4zm18.5-.437V14h1.5v-.437zM14.891 4.61l3.959 3.563 1.003-1.115-3.958-3.563zm7.859 8.952c0-1.689.015-2.758-.41-3.714l-1.371.61c.266.598.281 1.283.281 3.104zm-3.9-5.389c1.353 1.218 1.853 1.688 2.119 2.285l1.37-.61c-.426-.957-1.23-1.66-2.486-2.79zM10.03 2.75c1.582 0 2.179.012 2.71.216l.538-1.4c-.852-.328-1.78-.316-3.248-.316zm5.865.746c-1.086-.977-1.765-1.604-2.617-1.93l-.537 1.4c.532.204.98.592 2.15 1.645zM10 21.25c-1.907 0-3.261-.002-4.29-.14-1.005-.135-1.585-.389-2.008-.812l-1.06 1.06c.748.75 1.697 1.081 2.869 1.239 1.15.155 2.625.153 4.489.153zM1.25 14c0 1.864-.002 3.338.153 4.489.158 1.172.49 2.121 1.238 2.87l1.06-1.06c-.422-.424-.676-1.004-.811-2.01-.138-1.027-.14-2.382-.14-4.289zM14 22.75c1.864 0 3.338.002 4.489-.153 1.172-.158 2.121-.49 2.87-1.238l-1.06-1.06c-.424.422-1.004.676-2.01.811-1.027.138-2.382.14-4.289.14zm-3.97-21.5c-1.875 0-3.356-.002-4.511.153-1.177.158-2.129.49-2.878 1.238l1.06 1.06c.424-.422 1.005-.676 2.017-.811 1.033-.138 2.395-.14 4.312-.14zM2.848 6.073c.121-1.234.382-1.9.854-2.371l-1.06-1.06c-.836.834-1.153 1.919-1.287 3.285zm18.304 11.854c-.121 1.234-.383 1.9-.854 2.371l1.06 1.06c.836-.834 1.153-1.919 1.287-3.285z"/></svg>
